Newaita-dark/actions/16/edit-find.svg

<?xml version="1.0" encoding="UTF-8"?>
<svg xmlns="http://www.w3.org/2000/svg" xmlns:xlink="http://www.w3.org/1999/xlink" width="16pt" height="16pt" viewBox="0 0 16 16" version="1.1">
<g id="surface1">
<path style=" stroke:none;fill-rule:nonzero;fill:rgb(74.117649%,74.117649%,74.117649%);fill-opacity:1;" d="M 5.953125 0.785156 C 3.023438 0.785156 0.660156 3.148438 0.660156 6.078125 C 0.660156 9.011719 3.023438 11.371094 5.953125 11.371094 C 8.886719 11.371094 11.246094 9.011719 11.246094 6.078125 C 11.246094 3.148438 8.886719 0.785156 5.953125 0.785156 Z M 5.953125 1.777344 C 8.335938 1.777344 10.253906 3.695312 10.253906 6.078125 C 10.253906 8.460938 8.335938 10.378906 5.953125 10.378906 C 3.570312 10.378906 1.652344 8.460938 1.652344 6.078125 C 1.652344 3.695312 3.570312 1.777344 5.953125 1.777344 Z M 5.953125 1.777344 "/>
<path style=" stroke:none;fill-rule:nonzero;fill:rgb(74.117649%,74.117649%,74.117649%);fill-opacity:1;" d="M 8.601562 9.71875 L 9.535156 8.78125 L 11.640625 10.886719 L 10.703125 11.820312 Z M 8.601562 9.71875 "/>
<path style=" stroke:none;fill-rule:nonzero;fill:rgb(55.29412%,43.137255%,38.82353%);fill-opacity:1;" d="M 9.945312 11.179688 L 10.996094 10.125 C 11.222656 9.902344 11.617188 9.925781 11.875 10.183594 L 14.679688 12.992188 C 14.9375 13.25 14.964844 13.644531 14.738281 13.867188 L 13.6875 14.921875 C 13.460938 15.148438 13.066406 15.121094 12.808594 14.863281 L 10.003906 12.054688 C 9.746094 11.796875 9.71875 11.40625 9.945312 11.179688 Z M 9.945312 11.179688 "/>
</g>
</svg>

<svg xmlns="http://www.w3.org/2000/svg" width="16pt" height="16pt" viewBox="0 0 16 16"><path d="M5.953.785A5.285 5.285 0 0 0 .66 6.078a5.282 5.282 0 0 0 5.293 5.293 5.28 5.28 0 0 0 5.293-5.293c0-2.93-2.36-5.293-5.293-5.293zm0 .992c2.383 0 4.3 1.918 4.3 4.301s-1.917 4.3-4.3 4.3a4.291 4.291 0 0 1-4.3-4.3c0-2.383 1.917-4.3 4.3-4.3zm0 0" fill="#bdbdbd"/><path d="M8.602 9.719l.933-.938 2.106 2.106-.938.933zm0 0" fill="#bdbdbd"/><path d="M9.945 11.18l1.051-1.055c.227-.223.621-.2.879.059l2.805 2.808c.258.258.285.653.058.875l-1.05 1.055c-.227.226-.622.2-.88-.059l-2.804-2.808c-.258-.258-.285-.649-.059-.875zm0 0" fill="#8d6e63"/></svg>
